X:69
T:Payne's 5th Sett Of Quadrilles,4. Le4.069
T:Soldier Soldier, Won't You Marry Me,aka. Le4.069
B:L.Leadley MS#4 c1850
Z:Village Music Project, 2016 Steve Mansfield
M:2/4
L:1/8
Q:2/4=60
K:C
G/F/ | EGGB | c/B/c/d/ ef | gcgG | A2 GF |
EGGB | c/B/c/d/ ef | gcdB | c2 z H ||
d | dcdc | d/c/d/e/ dg | fa c'c' | b2 gf |
dcBc | d/c/d/e/ dg | ^fc'af | g2 z !segno! ||
e | f_AGe | f_AGe | dd (d/c/B/A/) | G2 ze |
f_AGe | f_AGe | dd (d/c/B/A/) | G3 !segno! |]

